X: 23
T: 1st August
R: reel
M: 4/4
K: Edorian
DEEE GEGA|B3B BAGB|AAAB AGFG|(3Bce dB AGFA|
DEEE GEGA|B3B BAGB|AAAB AGFG|1 EGAE GAEG:|2 EGAG ABcd||
efge fedB|e3d BAGF|EGGG A2AA|B2Bd BAGF|
EGGG AGGG|(3Bce dB AGFG|EFGB AGFA|1 GGGF G2Bd:|2 GGGF G2EG||

